static/img/kroki/3dbc937df1fb9338372d0f72c3290122.svg

<?xml version="1.0" encoding="us-ascii" standalone="no"?><svg xmlns="http://www.w3.org/2000/svg" xmlns:xlink="http://www.w3.org/1999/xlink" contentStyleType="text/css" height="252px" preserveAspectRatio="none" style="width:297px;height:252px;" version="1.1" viewBox="0 0 297 252" width="297px" zoomAndPan="magnify"><defs/><g><!--class aws_beanstalk_environment--><g id="elem_aws_beanstalk_environment"><rect codeLine="22" fill="#3D176E" height="39.7891" id="aws_beanstalk_environment" rx="2.5" ry="2.5" style="stroke:#000D19;stroke-width:0.5;" width="283" x="7" y="7"/><ellipse cx="22" cy="26.8945" fill="#ADD1B2" rx="11" ry="11" style="stroke:#181818;stroke-width:1.0;"/><path d="M24.9688,32.5352 Q24.3906,32.832 23.75,32.9727 Q23.1094,33.1289 22.4063,33.1289 Q19.9063,33.1289 18.5781,31.4883 Q17.2656,29.832 17.2656,26.707 Q17.2656,23.582 18.5781,21.9258 Q19.9063,20.2695 22.4063,20.2695 Q23.1094,20.2695 23.75,20.4258 Q24.4063,20.582 24.9688,20.8789 L24.9688,23.5977 Q24.3438,23.0195 23.75,22.7539 Q23.1563,22.4727 22.5313,22.4727 Q21.1875,22.4727 20.5,23.5508 Q19.8125,24.6133 19.8125,26.707 Q19.8125,28.8008 20.5,29.8789 Q21.1875,30.9414 22.5313,30.9414 Q23.1563,30.9414 23.75,30.6758 Q24.3438,30.3945 24.9688,29.8164 L24.9688,32.5352 Z " fill="#000000"/><text fill="#D9B8FF" font-family="Helvetica" font-size="17" lengthAdjust="spacing" textLength="241" x="41" y="32.7798">aws_beanstalk_environment</text></g><!--class aws_kms_key--><g id="elem_aws_kms_key"><rect codeLine="24" fill="#3D176E" height="39.7891" id="aws_kms_key" rx="2.5" ry="2.5" style="stroke:#000D19;stroke-width:0.5;" width="158" x="69.5" y="206.58"/><ellipse cx="84.5" cy="226.4745" fill="#ADD1B2" rx="11" ry="11" style="stroke:#181818;stroke-width:1.0;"/><path d="M87.4688,232.1152 Q86.8906,232.412 86.25,232.5527 Q85.6094,232.7089 84.9063,232.7089 Q82.4063,232.7089 81.0781,231.0683 Q79.7656,229.412 79.7656,226.287 Q79.7656,223.162 81.0781,221.5058 Q82.4063,219.8495 84.9063,219.8495 Q85.6094,219.8495 86.25,220.0058 Q86.9063,220.162 87.4688,220.4589 L87.4688,223.1777 Q86.8438,222.5995 86.25,222.3339 Q85.6563,222.0527 85.0313,222.0527 Q83.6875,222.0527 83,223.1308 Q82.3125,224.1933 82.3125,226.287 Q82.3125,228.3808 83,229.4589 Q83.6875,230.5214 85.0313,230.5214 Q85.6563,230.5214 86.25,230.2558 Q86.8438,229.9745 87.4688,229.3964 L87.4688,232.1152 Z " fill="#000000"/><text fill="#D9B8FF" font-family="Helvetica" font-size="17" lengthAdjust="spacing" textLength="116" x="103.5" y="232.3598">aws_kms_key</text></g><!--class aws_sqs_queue--><g id="elem_aws_sqs_queue"><rect codeLine="26" fill="#3D176E" height="39.7891" id="aws_sqs_queue" rx="2.5" ry="2.5" style="stroke:#000D19;stroke-width:0.5;" width="171" x="63" y="106.79"/><ellipse cx="78" cy="126.6845" fill="#ADD1B2" rx="11" ry="11" style="stroke:#181818;stroke-width:1.0;"/><path d="M80.9688,132.3252 Q80.3906,132.622 79.75,132.7627 Q79.1094,132.9189 78.4063,132.9189 Q75.9063,132.9189 74.5781,131.2783 Q73.2656,129.622 73.2656,126.497 Q73.2656,123.372 74.5781,121.7158 Q75.9063,120.0595 78.4063,120.0595 Q79.1094,120.0595 79.75,120.2158 Q80.4063,120.372 80.9688,120.6689 L80.9688,123.3877 Q80.3438,122.8095 79.75,122.5439 Q79.1563,122.2627 78.5313,122.2627 Q77.1875,122.2627 76.5,123.3408 Q75.8125,124.4033 75.8125,126.497 Q75.8125,128.5908 76.5,129.6689 Q77.1875,130.7314 78.5313,130.7314 Q79.1563,130.7314 79.75,130.4658 Q80.3438,130.1845 80.9688,129.6064 L80.9688,132.3252 Z " fill="#000000"/><text fill="#D9B8FF" font-family="Helvetica" font-size="17" lengthAdjust="spacing" textLength="129" x="97" y="132.5698">aws_sqs_queue</text></g><!--link aws_beanstalk_environment to aws_sqs_queue--><g id="link_aws_beanstalk_environment_aws_sqs_queue"><path codeLine="28" d="M148.5,47.22 C148.5,62.49 148.5,83.92 148.5,100.53 " fill="none" id="aws_beanstalk_environment-to-aws_sqs_queue" style="stroke:#1A83AF;stroke-width:2.0;"/><polygon fill="#1A83AF" points="148.5,105.41,152.5,96.41,148.5,100.41,144.5,96.41,148.5,105.41" style="stroke:#1A83AF;stroke-width:2.0;"/></g><!--link aws_sqs_queue to aws_kms_key--><g id="link_aws_sqs_queue_aws_kms_key"><path codeLine="29" d="M148.5,147.01 C148.5,162.28 148.5,183.71 148.5,200.32 " fill="none" id="aws_sqs_queue-to-aws_kms_key" style="stroke:#1A83AF;stroke-width:2.0;"/><polygon fill="#1A83AF" points="148.5,205.2,152.5,196.2,148.5,200.2,144.5,196.2,148.5,205.2" style="stroke:#1A83AF;stroke-width:2.0;"/></g><!--SRC=[XP9FRy8m3CNlV8f8d97QeQrmcTGXeUs2fh7RD26tSMZK9YbE2kgcVVUrmARGykUGYzylVi-MCycHeIfTpHIg1CaER2vr2GIAnKHcDpE58JOK0iGuwefpezrDO04AsJCMMtGoXIxndiaqrsWjk_Ea9qZpDPbAyqDxHw1j8w5s7ZKhmDhOEP99vT0BmwV9H8WksMqw7FCmUi0UPeWZ7P4W27WuxI8thQxE_KyivHUoq5_QmZZinUnPxAchALl22zaRz4-_cF4LE9TwpUwzsjiX4scaa_eo0svsBIsWiBwDTKXeN5tYh3SLJYTSH6VXbqjmscwEmSwk4cmEma6Hhr1l9HcjcjDWtuCVZybLyx3kLEt6hZOLLhYlN-ur-XY6yMGSppz7ZwSV1wTjUk3HznS0]--></g></svg>

<svg xmlns="http://www.w3.org/2000/svg" width="297" height="252" preserveAspectRatio="none" style="width:297px;height:252px"><rect width="283" height="39.789" x="7" y="7" fill="#3D176E" rx="2.5" ry="2.5" style="stroke:#000d19;stroke-width:.5"/><circle cx="22" cy="26.895" r="11" fill="#ADD1B2" style="stroke:#181818;stroke-width:1"/><path d="M24.969 32.535q-.578.297-1.219.438-.64.156-1.344.156-2.5 0-3.828-1.64-1.312-1.657-1.312-4.782t1.312-4.781q1.328-1.656 3.828-1.656.703 0 1.344.156.656.156 1.219.453v2.719q-.625-.578-1.219-.844-.594-.281-1.219-.281-1.343 0-2.031 1.078-.688 1.062-.688 3.156 0 2.094.688 3.172.688 1.062 2.031 1.062.625 0 1.219-.265.594-.281 1.219-.86v2.72Z"/><text x="41" y="32.78" fill="#D9B8FF" font-family="Helvetica" font-size="17" textLength="241">aws_beanstalk_environment</text><rect width="158" height="39.789" x="69.5" y="206.58" fill="#3D176E" rx="2.5" ry="2.5" style="stroke:#000d19;stroke-width:.5"/><circle cx="84.5" cy="226.475" r="11" fill="#ADD1B2" style="stroke:#181818;stroke-width:1"/><path d="M87.469 232.115q-.578.297-1.219.438-.64.156-1.344.156-2.5 0-3.828-1.64-1.312-1.657-1.312-4.782t1.312-4.781q1.328-1.656 3.828-1.656.703 0 1.344.156.656.156 1.219.453v2.719q-.625-.578-1.219-.844-.594-.281-1.219-.281-1.344 0-2.031 1.078-.688 1.062-.688 3.156 0 2.094.688 3.172.688 1.062 2.031 1.062.625 0 1.219-.265.594-.281 1.219-.86v2.72Z"/><text x="103.5" y="232.36" fill="#D9B8FF" font-family="Helvetica" font-size="17" textLength="116">aws_kms_key</text><rect width="171" height="39.789" x="63" y="106.79" fill="#3D176E" rx="2.5" ry="2.5" style="stroke:#000d19;stroke-width:.5"/><circle cx="78" cy="126.684" r="11" fill="#ADD1B2" style="stroke:#181818;stroke-width:1"/><path d="M80.969 132.325q-.578.297-1.219.438-.64.156-1.344.156-2.5 0-3.828-1.64-1.312-1.657-1.312-4.782t1.312-4.781q1.328-1.656 3.828-1.656.703 0 1.344.156.656.156 1.219.453v2.719q-.625-.579-1.219-.844-.594-.281-1.219-.281-1.344 0-2.031 1.078-.688 1.062-.688 3.156 0 2.094.688 3.172.688 1.062 2.031 1.062.625 0 1.219-.265.594-.281 1.219-.86v2.72Z"/><text x="97" y="132.57" fill="#D9B8FF" font-family="Helvetica" font-size="17" textLength="129">aws_sqs_queue</text><path fill="none" d="M148.5 47.22v53.31" style="stroke:#1a83af;stroke-width:2"/><path fill="#1A83AF" d="m148.5 105.41 4-9-4 4-4-4 4 9z" style="stroke:#1a83af;stroke-width:2"/><path fill="none" d="M148.5 147.01v53.31" style="stroke:#1a83af;stroke-width:2"/><path fill="#1A83AF" d="m148.5 205.2 4-9-4 4-4-4 4 9z" style="stroke:#1a83af;stroke-width:2"/></svg>
